X:205
T: Kronelied (3-9), S. 35
N: P0980
O: Lothringen
S: PINCK, Louis: Verklingende Weisen, Bd3, Metz 1933]
R: yyy]
M: 4/4
L: 1/8
K: D
A2 | A2A2A2G2 | A4A2
B2 | =c2c2B2B2 | A4z2
A2 | A2A2A2G2 | A4G2
E2 | =F2F2E2EE | D4z2

